X: 224
T: No_7_Corn_Dance_Song_(c).krn
N: Derived from No_7_Corn_Dance_Song_(c).krn
%%abc-version 2.0
%%abcx-abcm2ps-target-version 5.9.1 (29 Sep 2008)
%%abc-creator hum2abc beta
%%abcx-conversion-date 2019/03/15 08:38:45
%%humdrum-veritas 1355589256
%%humdrum-veritas-data 1142405448
%%linebreak <none>
%%barnumbers 0
L: 1/8
M: 2/4
K: C clef=bass
[K:clef=bass][M:2/4]G,2E,2 | 
E,3/G,/G,2 ||  
[M:7/8]G,3E,G,E,D, ||  
[M:2/4]C,/C,3/-C,2 ||  
[M:3/4]C,4D,C, ||  
[M:2/4]C,2A,,2 | 
A,,3/C,/!fermata!C,2 | 
C,3A,, | 
C,2A,,2 | 
A,,3/C,/!fermata!C,2 | 
C,2z2 ||  
[M:3/4]G,4(3G,E,G, ||  
[M:2/4]E,2C, z | 
C,2z2 | 
D,2z2 | 
D,2C,3/D,/ ||  
[M:3/4]D, z z E, (3E,D,C, | 
C,4D,C, ||  
[M:2/4]C,2A,,2 | 
A,,3/C,/!fermata!C,2 | 
C,3A,, | 
C,2A,,2 | 
A,, z/ C,/!fermata!C,2 | 
C,2z2 ]|:  
G,2E,2 | 
E,3/G,/G,2 ||  
[M:6/8]G,2E, G,E,D, ||  
[M:2/4]C,3/C,/C,2 ||  
[M:3/4]C,4D,C, ||  
[M:2/4]C,2A,,2 | 
A,, z/ C,/!fermata!C,2 ||  
[M:3/4]C,4-C,A,, ||  
[M:2/4]C,2A,,2 | 
A,, z/ C,/!fermata!C,2 | 
C,3z | 
[M:3/4]G,4(3G,E,G, | 
E,2E,D,z2 ||  
[M:2/4]E,D, C,/D,3/ ||  
[M:3/4]D,2z E, (3E,D,C, | 
C,4D,C, ||  
[M:2/4]C,2A,,2 | 
A,,3/C,/!fermata!C,2 ||  
[M:3/4]C,4-C,A,, ||  
[M:2/4]C,2A,,2 | 
A,, z/ C,/ C,/C,3/ | 
C,2z2 ||  
[M:3/4]G,2G,/E,3/ E,3/G,/ | 
E,2E,D,z2 ||  
[M:2/4]E,D, C,3/D,/ ||  
[M:3/4]E,2z F, (3F,E,D, ||  
[M:2/4]D,4 | 
E,2D,2 | 
C,2B,,2 | 
A,,3/C,/C,2 ||  
[M:3/4]C,4C,A,, ||  
[M:2/4]C,2A,,2 | 
A,, z/ C,/C,2 | 
B,,4 :|]  
[M:3/4]C4C2 | 
(C2E,) zz2 |]  



